src/pos-icons/contrast.svg

<svg height="24" viewBox="0 0 24 24" width="24" xmlns="http://www.w3.org/2000/svg"><path d="m4.38 20.9c-.6-.19-1.08-.67-1.28-1.27l16.53-16.53c.6.2 1.08.68 1.27 1.28zm15.62-4.9v2h-7v-2zm-17-10h3v-3h2v3h3v2h-3v3h-2v-3h-3z"/></svg>

<?xml version="1.0" encoding="UTF-8"?><!DOCTYPE svg PUBLIC "-//W3C//DTD SVG 1.1//EN" "http://www.w3.org/Graphics/SVG/1.1/DTD/svg11.dtd"><svg xmlns="http://www.w3.org/2000/svg" xmlns:xlink="http://www.w3.org/1999/xlink" version="1.1" id="mdi-contrast" width="24" height="24" viewBox="0 0 24 24"><path d="M4.38,20.9C3.78,20.71 3.3,20.23 3.1,19.63L19.63,3.1C20.23,3.3 20.71,3.78 20.9,4.38L4.38,20.9M20,16V18H13V16H20M3,6H6V3H8V6H11V8H8V11H6V8H3V6Z" /></svg>
